Papirus/22x22/apps/kicad.svg

<?xml version="1.0" encoding="UTF-8" standalone="no"?>
<svg xmlns="http://www.w3.org/2000/svg" height="22" width="22" version="1">
 <rect transform="matrix(0,-1,-1,0,0,0)" rx="1" ry="1" height="20" width="20" y="-21" x="-21" fill="#44579d"/>
 <path opacity=".2" d="m3 4.5v15h3v-3.5l2.5 3.5h3.5l-5-7.5 5-7.5h-3.5l-2.5 3.5v-3.5h-3zm13.5 0a1.5 1.5 0 0 0 -1.5 1.5 1.5 1.5 0 0 0 1.5 1.5 1.5 1.5 0 0 0 1.5 -1.5 1.5 1.5 0 0 0 -1.5 -1.5zm-1.5 5v10h3v-10h-3z"/>
 <path opacity=".1" fill="#fff" d="m2 1c-0.554 0-1 0.446-1 1v0.5c0-0.554 0.446-1 1-1h18c0.554 0 1 0.446 1 1v-0.5c0-0.554-0.446-1-1-1h-18z"/>
 <path opacity=".2" d="m2 21.5c-0.554 0-1-0.446-1-1v-0.5c0 0.554 0.446 1 1 1h18c0.554 0 1-0.446 1-1v0.5c0 0.554-0.446 1-1 1h-18z"/>
 <path fill="#ffd676" d="m3 4v15h3v-3.5l2.5 3.5h3.5l-5-7.5 5-7.5h-3.5l-2.5 3.5v-3.5z"/>
 <path fill="#ffd676" d="m15 9h3v10h-3z"/>
 <circle cy="5.5" cx="16.5" r="1.5" fill="#f70"/>
</svg>

<?xml version="1.0" encoding="UTF-8" standalone="no"?>
<svg xmlns="http://www.w3.org/2000/svg" height="22" width="22" version="1">
 <path style="opacity:0.2" d="m 2,21.5 c -0.554,0 -1,-0.446 -1,-1 V 20 c 0,0.554 0.446,1 1,1 h 18 c 0.554,0 1,-0.446 1,-1 v 0.5 c 0,0.554 -0.446,1 -1,1 z"/>
 <path style="fill:#44579d" d="M 2,1 C 1.446,1 1,1.446 1,2 v 18 c 0,0.554 0.446,1 1,1 h 18 c 0.554,0 1,-0.446 1,-1 V 6 A 5,5 0 0 0 16,1 Z"/>
 <path style="opacity:0.2" d="m 3,4.5 v 15 H 6 V 16 l 2.5,3.5 H 12 L 7,12 12,4.5 H 8.5 L 6,8 V 4.5 Z m 13.5,0 A 1.5,1.5 0 0 0 15,6 1.5,1.5 0 0 0 16.5,7.5 1.5,1.5 0 0 0 18,6 1.5,1.5 0 0 0 16.5,4.5 Z m -1.5,5 v 10 h 3 v -10 z"/>
 <path style="fill:#ffd676" d="M 3,4 V 19 H 6 V 15.5 L 8.5,19 H 12 L 7,11.5 12,4 H 8.5 L 6,7.5 V 4 Z"/>
 <path style="fill:#ffd676" d="m 15,9 h 3 v 10 h -3 z"/>
 <circle style="fill:#ff7700" cy="5.5" cx="16.5" r="1.5"/>
 <path style="opacity:0.1;fill:#ffffff" d="M 2,1 C 1.446,1 1,1.446 1,2 v 0.5 c 0,-0.554 0.446,-1 1,-1 h 14 a 5,5 0 0 1 5,5 V 6 A 5,5 0 0 0 16,1 Z"/>
</svg>
